Suru++-Ubuntu/apps/scalable/portal.svg

<svg xmlns="http://www.w3.org/2000/svg" xmlns:xlink="http://www.w3.org/1999/xlink" width="256" height="256" version="1.1" viewBox="0 0 67.73 67.73">
 <defs>
  <linearGradient id="linearGradient1108" x1="296" x2="296" y1="-212" y2="202.4" gradientUnits="userSpaceOnUse" xlink:href="#linearGradient1013"/>
  <linearGradient id="linearGradient1013">
   <stop offset="0" style="stop-color:#ffffff"/>
   <stop style="stop-color:#ffffff;stop-opacity:0.09803922" offset=".135"/>
   <stop style="stop-color:#ffffff;stop-opacity:0" offset="1"/>
  </linearGradient>
  <clipPath id="clipPath1082-3-3675" clipPathUnits="userSpaceOnUse">
   <path d="M 361.9375,-212 C 507.2348,-212 528,-191.28677 528,-46.125 V 70.125 C 528,215.28618 507.2348,236 361.9375,236 H 214.0625 C 68.7652,236 48,215.28618 48,70.125 V -46.125 C 48,-191.28677 68.7652,-212 214.0625,-212 Z" style="fill:#8c59d9"/>
  </clipPath>
  <filter style="color-interpolation-filters:sRGB" id="filter910" width="1.046" height="1.05" x="-.02" y="-.03">
   <feGaussianBlur stdDeviation="2.32"/>
  </filter>
  <filter style="color-interpolation-filters:sRGB" id="filter4569" width="1.023" height="1.025" x="-.01" y="-.01">
   <feGaussianBlur stdDeviation="1.16"/>
  </filter>
 </defs>
 <g transform="translate(0,-229.26666)">
  <g style="enable-background:new" transform="matrix(0.12974173,0,0,0.12974173,3.8344818,227.85345)">
   <path d="m 301.90773,44.402363 c 148.15296,0 169.32628,21.120327 169.32628,169.135097 v 118.53478 c 0,148.01417 -21.17332,169.1351 -169.32628,169.1351 H 151.12641 c -148.1529701,0 -169.32628,-21.12093 -169.32628,-169.1351 V 213.53746 c 0,-148.01477 21.1733099,-169.135097 169.32628,-169.135097 z" style="opacity:0.2;fill:none;stroke:#000000;stroke-width:8.15723133;stroke-linecap:round;stroke-linejoin:round"/>
   <path d="m 162.53675,3.5680001 c 72.64865,0 83.03125,10.3566149 83.03125,82.9375049 v 58.125005 c 0,72.58059 -10.3826,82.9375 -83.03125,82.9375 H 88.599254 C 15.9506,227.56801 5.568,217.2111 5.568,144.63051 V 86.505505 c 0,-72.58089 10.3826,-82.9375049 83.031254,-82.9375049 z" transform="matrix(2.0393079,0,0,2.0393079,-29.55473,37.126102)" style="opacity:0.1;filter:url(#filter4569)"/>
   <path style="opacity:0.2;filter:url(#filter910)" d="m 162.53675,5.5680001 c 72.64865,0 83.03125,10.3566149 83.03125,82.9375049 v 58.125005 c 0,72.58059 -10.3826,82.9375 -83.03125,82.9375 H 88.599254 C 15.9506,229.56801 5.568,219.2111 5.568,146.63051 V 88.505505 c 0,-72.58089 10.3826,-82.9375049 83.031254,-82.9375049 z" transform="matrix(2.0393079,0,0,2.0393079,-29.55473,37.126102)"/>
   <path style="fill:#0099ff" d="m 301.90773,44.402363 c 148.15296,0 169.32628,21.120327 169.32628,169.135097 v 118.53478 c 0,148.01417 -21.17332,169.1351 -169.32628,169.1351 H 151.12641 c -148.1529701,0 -169.32628,-21.12093 -169.32628,-169.1351 V 213.53746 c 0,-148.01477 21.1733099,-169.135097 169.32628,-169.135097 z"/>
   <path d="M 361.9375,-212 C 507.2348,-212 528,-191.28677 528,-46.125 V 70.125 C 528,215.28618 507.2348,236 361.9375,236 H 214.0625 C 68.7652,236 48,215.28618 48,70.125 V -46.125 C 48,-191.28677 68.7652,-212 214.0625,-212 Z" clip-path="url(#clipPath1082-3-3675)" transform="matrix(1.0196539,0,0,1.0196539,-67.14326,260.569)" style="opacity:0.5;fill:none;stroke:url(#linearGradient1108);stroke-width:8;stroke-linecap:round;stroke-linejoin:round"/>
   <g transform="matrix(4.4817672,0,0,4.4817672,-46.098868,252.66037)" style="stroke:#ffffff">
    <path style="fill:#ffffff" d="m 60.829001,-41.007553 c -25.091273,0 -45.450124,20.381085 -45.450124,45.5014988 0,25.1204182 20.358851,45.5031342 45.450124,45.5031342 25.091273,0 45.447679,-20.382716 45.447679,-45.5031342 0,-25.1204138 -20.356406,-45.5014988 -45.447679,-45.5014988 z m 0,1.595142 c 6.862403,0 13.354558,1.577447 19.136808,4.388271 v 28.0552491 a 22.325055,22.352395 0 0 0 -3.359094,-4.3328161 l 0.0065,-0.0065 -26.699867,-26.73412 c 3.489371,-0.89418 7.14697,-1.37006 10.915631,-1.37006 z m -14.379926,2.415547 19.81205,19.838149 a 22.325055,22.352395 0 0 0 -5.43131,-0.698894 H 23.074866 c 5.242192,-8.860538 13.505815,-15.713657 23.374209,-19.139255 z m 36.705387,3.692639 c 8.849068,5.249049 15.692535,13.523176 19.113158,23.4043831 L 82.456381,9.9325965 a 22.325055,22.352395 0 0 0 0.698081,-5.4378323 z m -61.797065,18.640161 h 28.02263 a 22.325055,22.352395 0 0 0 -4.327924,3.362357 l -0.0065,-0.0065 -26.700708,26.731671 C 17.451741,11.929592 16.97565,8.2674966 16.97565,4.4939458 c 0,-6.8699015 1.575258,-13.3692727 4.381747,-19.1580098 z m 81.954083,8.23341 c 0.89241,3.492557 1.36761,7.15251503 1.36761,10.9245998 0,6.8701652 -1.57445,13.3705372 -4.38093,19.1596432 H 72.279608 a 22.325055,22.352395 0 0 0 4.327921,-3.362354 l 0.0057,0.0065 z M 39.202434,-0.94307186 A 22.325055,22.352395 0 0 0 38.504355,4.4947642 V 42.295384 C 29.655075,37.04672 22.810359,28.773162 19.38875,18.892631 Z M 41.693823,15.958416 a 22.325055,22.352395 0 0 0 3.35828,4.332819 l -0.0065,0.0065 26.698235,26.734122 c -3.489296,0.894254 -7.146152,1.37006 -10.914813,1.37006 -6.861492,0 -13.353298,-1.577128 -19.135178,-4.387458 z m 13.704682,10.189825 a 22.325055,22.352395 0 0 0 5.43131,0.698895 H 98.580689 C 93.33901,35.707357 85.076321,42.560515 75.208926,45.98639 Z"/>
   </g>
  </g>
 </g>
</svg>

<svg width="256" height="256" version="1.1" viewBox="0 0 67.73 67.73" xmlns="http://www.w3.org/2000/svg" xmlns:xlink="http://www.w3.org/1999/xlink">
 <defs>
  <linearGradient id="linearGradient1108" x1="296" x2="296" y1="-212" y2="202.4" gradientUnits="userSpaceOnUse">
   <stop style="stop-color:#ffffff" offset="0"/>
   <stop style="stop-color:#ffffff;stop-opacity:.09803922" offset=".135"/>
   <stop style="stop-color:#ffffff;stop-opacity:0" offset="1"/>
  </linearGradient>
  <clipPath id="clipPath1082-3-3675">
   <path d="M 361.9375,-212 C 507.2348,-212 528,-191.28677 528,-46.125 V 70.125 C 528,215.28618 507.2348,236 361.9375,236 H 214.0625 C 68.7652,236 48,215.28618 48,70.125 V -46.125 C 48,-191.28677 68.7652,-212 214.0625,-212 Z" style="fill:#8c59d9"/>
  </clipPath>
  <filter id="filter910" x="-.02" y="-.03" width="1.046" height="1.05" style="color-interpolation-filters:sRGB">
   <feGaussianBlur stdDeviation="2.32"/>
  </filter>
  <filter id="filter4569" x="-.01" y="-.01" width="1.023" height="1.025" style="color-interpolation-filters:sRGB">
   <feGaussianBlur stdDeviation="1.16"/>
  </filter>
 </defs>
 <g transform="translate(0,-229.26666)">
  <g transform="matrix(.12974173 0 0 .12974173 3.8344818 227.85345)" style="enable-background:new">
   <path d="m301.90773 44.402363c148.15296 0 169.32628 21.120327 169.32628 169.1351v118.53478c0 148.01417-21.17332 169.1351-169.32628 169.1351h-150.78132c-148.15297 0-169.32628-21.12093-169.32628-169.1351v-118.53478c0-148.01477 21.17331-169.1351 169.32628-169.1351z" style="fill:none;opacity:.2;stroke-linecap:round;stroke-linejoin:round;stroke-width:8.1572313;stroke:#000000"/>
   <path transform="matrix(2.0393079,0,0,2.0393079,-29.55473,37.126102)" d="m162.53675 3.5680001c72.64865 0 83.03125 10.356615 83.03125 82.937505v58.125005c0 72.58059-10.3826 82.9375-83.03125 82.9375h-73.937496c-72.648654 0-83.031254-10.35691-83.031254-82.9375v-58.125005c0-72.58089 10.3826-82.937505 83.031254-82.937505z" style="filter:url(#filter4569);opacity:.1"/>
   <path transform="matrix(2.0393079,0,0,2.0393079,-29.55473,37.126102)" d="m162.53675 5.5680001c72.64865 0 83.03125 10.356615 83.03125 82.937505v58.125005c0 72.58059-10.3826 82.9375-83.03125 82.9375h-73.937496c-72.648654 0-83.031254-10.35691-83.031254-82.9375v-58.125005c0-72.58089 10.3826-82.937505 83.031254-82.937505z" style="filter:url(#filter910);opacity:.2"/>
   <path d="m301.90773 44.402363c148.15296 0 169.32628 21.120327 169.32628 169.1351v118.53478c0 148.01417-21.17332 169.1351-169.32628 169.1351h-150.78132c-148.15297 0-169.32628-21.12093-169.32628-169.1351v-118.53478c0-148.01477 21.17331-169.1351 169.32628-169.1351z" style="fill:#0099ff"/>
   <path transform="matrix(1.0196539,0,0,1.0196539,-67.14326,260.569)" d="M 361.9375,-212 C 507.2348,-212 528,-191.28677 528,-46.125 V 70.125 C 528,215.28618 507.2348,236 361.9375,236 H 214.0625 C 68.7652,236 48,215.28618 48,70.125 V -46.125 C 48,-191.28677 68.7652,-212 214.0625,-212 Z" clip-path="url(#clipPath1082-3-3675)" style="fill:none;opacity:.5;stroke-linecap:round;stroke-linejoin:round;stroke-width:8;stroke:url(#linearGradient1108)"/>
   <g transform="matrix(4.4817672,0,0,4.4817672,-46.098868,252.66037)" style="stroke:#ffffff">
    <path d="m60.829001-41.007553c-25.091273 0-45.450124 20.381085-45.450124 45.501499 0 25.120418 20.358851 45.503134 45.450124 45.503134s45.447679-20.382716 45.447679-45.503134c0-25.120414-20.356406-45.501499-45.447679-45.501499zm0 1.595142c6.862403 0 13.354558 1.577447 19.136808 4.388271v28.055249a22.325055 22.352395 0 0 0-3.359094-4.3328161l0.0065-0.0065-26.699867-26.73412c3.489371-0.89418 7.14697-1.37006 10.915631-1.37006zm-14.379926 2.415547 19.81205 19.838149a22.325055 22.352395 0 0 0-5.43131-0.698894h-37.754949c5.242192-8.860538 13.505815-15.713657 23.374209-19.139255zm36.705387 3.692639c8.849068 5.249049 15.692535 13.523176 19.113158 23.404383l-19.811239 19.832438a22.325055 22.352395 0 0 0 0.698081-5.4378323zm-61.797065 18.640161h28.02263a22.325055 22.352395 0 0 0-4.327924 3.362357l-0.0065-0.0065-26.700708 26.731671c-0.893154-3.493872-1.369245-7.1559674-1.369245-10.929518 0-6.8699015 1.575258-13.369273 4.381747-19.15801zm81.954083 8.23341c0.89241 3.492557 1.36761 7.152515 1.36761 10.9246 0 6.8701652-1.57445 13.370537-4.38093 19.159643h-28.018552a22.325055 22.352395 0 0 0 4.327921-3.362354l0.0057 0.0065zm-64.109046 5.4875821a22.325055 22.352395 0 0 0-0.698079 5.4378361v37.80062c-8.84928-5.248664-15.693996-13.522222-19.115605-23.402753zm2.491389 16.901488a22.325055 22.352395 0 0 0 3.35828 4.332819l-0.0065 0.0065 26.698235 26.734122c-3.489296 0.894254-7.146152 1.37006-10.914813 1.37006-6.861492 0-13.353298-1.577128-19.135178-4.387458zm13.704682 10.189825a22.325055 22.352395 0 0 0 5.43131 0.698895h37.750874c-5.241679 8.860221-13.504368 15.713379-23.371763 19.139254z" style="fill:#ffffff"/>
   </g>
  </g>
 </g>
</svg>
